X:1
T:Title
%%score ( 1 2 ) ( 3 4 )
L:1/8
Q:1/4=102
M:4/4
K:Ab
V:1 treble nm="Grand Piano, Soprano"
V:2 treble 
V:3 bass nm="Choir Pad, Bass"
V:4 bass 
V:1
 [CE]2 [CE]2 [CE][CE] [DF]2 | [CE]2 [CE]2 [CA]4 | [CA]2 [Ec]2 [Ec][Ec] [EB]2 | [=DA]2 [EB]6 | %4
w: By~D.~L.~Bledsoe * * * *||||
 [Ec][Ed][Ae][Ae] [EA][EA] [Ec]2 | [CE][CE][DF][EG] [FA][DF] [CE]2 | %6
w: ||
 [CE]2 [DF][EG] [FA]>[FB] [Ec]2 | [DB]2 [CA]6 | [CE]2 [CE]6 | [DF]>[CE] [CA]6 | %10
w: ||||
 [CA]2 [Ec]2 [Ec][Ec] [EB]2 | z2 e6 | [Ec][Ed][Ae][Ae] [EA][EA] [Ec]2 | %13
w: |||
 [CE][CE][DF][EG] [FA][DF] [CE]2 | [CE]2 [DF][EG] [FA]>[FB] [Ec]2 | [DB]2 [CA]6- | [CA]2 z2 z4 |] %17
w: ||||
V:2
 x8 | x8 | x8 | x8 | x8 | x8 | x8 | x8 | x8 | x8 | x8 | [=DA]2 E2 F2 G2 | x8 | x8 | x8 | x8 | x8 |] %17
V:3
 [A,,A,]2 [A,,A,]2 [A,,A,][A,,A,] [A,,A,]2 | [A,,A,]2 [A,,A,]2 [A,,E,]4 | %2
 [A,,A,]2 A,2 A,A, [G,B,]2 | [F,B,]2 [E,G,]6 | A,[A,B,][A,C][A,C] [A,C][A,C] A,2 | %5
 [A,,A,][A,,A,][D,A,][D,A,] [D,A,][D,A,] [A,,A,]2 | [A,,A,]2 [D,A,]2 [D,A,]>[D,A,] [E,A,]2 | %7
 [E,G,]2 [A,,A,]6 | z4 [A,,A,]>[A,,A,] [A,,A,]2 | z4 [A,,E,]2 [A,,E,]2 | %10
 [A,,A,]2 A,2 A,A, [G,B,]2 | [F,B,]2 G,2 A,2 B,2 | A,[A,B,][A,C][A,C] [A,C][A,C] A,2 | %13
 [A,,A,][A,,A,][D,A,][D,A,] [D,A,][D,A,] [A,,A,]2 | [A,,A,]2 [D,A,]2 [D,A,]>[D,A,] [E,A,]2 | %15
 [E,G,]2 [A,,A,]6- | [A,,A,]2 z2 z4 |] %17
V:4
 x8 | x8 | x8 | x8 | x8 | x8 | x8 | x8 | x8 | x8 | x8 | z2 E,6 | x8 | x8 | x8 | x8 | x8 |] %17

